X: 40678
T: Toper's Double, The
R: jig
M: 6/8
K: Gmajor
FA|:BEE BEE|BAG FAd|A2 D ADD|AGF EFA|
BEE BAF|DFA d2f|ed^c B=cA|1 BGE EFA:|2 BGE E3||
|:e/f/ge !roll!B3|edB gfe|fed Add|fed afd|
e/f/ge edB|dge f2 d|ed^c B=cA|BGE E3:|

